images/article/pirate-heijn/Pirate-Heijn-Visit-Website.svg

<?xml version="1.0" encoding="UTF-8"?>
<svg width="430px" height="80px" viewBox="0 0 430 80" version="1.1" xmlns="http://www.w3.org/2000/svg" xmlns:xlink="http://www.w3.org/1999/xlink">
    <title>Pirate-Heijn-Visit-Website</title>
    <defs>
        <path d="M12.0771684,51.953125 L12.0770804,34.8632812 L12.0770804,34.8632812 L20.5854752,34.8632812 C27.159694,34.8632812 31.9542512,33.3420943 34.9691468,30.2997205 L35.0599626,30.2070618 C38.0689958,27.1029154 39.5735124,22.8790283 39.5735124,17.5354004 C39.5735124,14.0421549 38.9336605,10.9812419 37.6539567,8.35266113 C36.3742529,5.7240804 34.3422908,3.67482503 31.5580705,2.20489502 C28.7738501,0.734965007 25.1163183,0 20.5854752,0 L1.21291665,0 C0.565707961,1.18890308e-16 0.0410416519,0.524666309 0.0410416519,1.171875 L0.0410416519,51.953125 C0.0410416519,52.6003337 0.565707961,53.125 1.21291665,53.125 L10.9052995,53.125 C11.5525082,53.125006 12.0771745,52.6003397 12.0771745,51.953131 C12.0771745,51.953129 12.0771745,51.953127 12.0771684,51.953125 Z" id="path-1"></path>
    </defs>
    <g id="Pirate-Heijn-Visit-Website" stroke="none" stroke-width="1" fill="none" fill-rule="evenodd">
        <path d="M54.2467909,1.50091074 C62.5794191,1.53248269 65.695365,2.38491076 68.821257,4.05665606 C71.8916359,5.6987127 74.3012873,8.10836408 75.9433439,11.178743 C77.6472382,14.3647483 78.5,17.5404213 78.5,26.2397626 L78.5,26.2397626 L78.5,53.7602374 C78.5,62.4595787 77.6472382,65.6352517 75.9433439,68.821257 C74.3012873,71.8916359 71.8916359,74.3012873 68.821257,75.9433439 C65.6352517,77.6472382 62.4595787,78.5 53.7602374,78.5 L53.7602374,78.5 L26.2397626,78.5 C17.5404213,78.5 14.3647483,77.6472382 11.178743,75.9433439 C8.10836408,74.3012873 5.6987127,71.8916359 4.05665606,68.821257 C2.38562929,65.6967086 1.53319832,62.5824475 1.50094146,54.2521349 L1.50094146,54.2521349 L1.50091074,25.7532091 C1.53248269,17.4205809 2.38491076,14.304635 4.05665606,11.178743 C5.6987127,8.10836408 8.10836408,5.6987127 11.178743,4.05665606 C14.3032914,2.38562929 17.4175525,1.53319832 25.7478651,1.50094146 L25.7478651,1.50094146 Z" id="Rectangle" stroke="#FF8A00" stroke-width="3" fill="#000000"></path>
        <g id="Group" transform="translate(22.926808, 13.437500)">
            <mask id="mask-2" fill="white">
                <use xlink:href="#path-1"></use>
            </mask>
            <use id="Mask" fill="#FF8A00" fill-rule="nonzero" xlink:href="#path-1"></use>
            <path d="M36.0783742,4.8113794 L38.9480765,9.28211364 C35.0469278,11.7862069 31.1912566,13.6761838 27.3817893,14.9445279 L27.3817427,18.4755607 C27.3817427,21.0695549 25.7443733,25.5312248 19.8072798,25.5312248 C13.8701862,25.5312248 12.3365766,21.0695549 12.3365766,18.4755607 L12.3365809,17.1545437 C8.45696436,17.2322342 4.26685573,17.0617226 -0.235281164,16.644727 L-0.46875,16.6229082 L0.0299347266,11.3338658 C7.45854759,12.0342829 13.9390361,12.0342829 19.4634946,11.3427086 C24.7235215,10.684237 30.203156,8.55470055 35.9055075,4.9219237 L36.0783742,4.8113794 Z" id="Path" fill="#000000" mask="url(#mask-2)"></path>
        </g>
        <path d="M110.795,54.5 L118.4,27.2 L113.135,27.2 L106.934,50.288 L106.544,50.288 L100.343,27.2 L95.078,27.2 L102.683,54.5 L110.795,54.5 Z M122.622784,32.894 C123.610784,32.894 124.436284,32.582 125.099284,31.958 C125.762284,31.334 126.093784,30.528 126.093784,29.54 C126.093784,28.552 125.762284,27.746 125.099284,27.122 C124.436284,26.498 123.610784,26.186 122.622784,26.186 C121.634784,26.186 120.809284,26.498 120.146284,27.122 C119.483284,27.746 119.151784,28.552 119.151784,29.54 C119.151784,30.528 119.483284,31.334 120.146284,31.958 C120.809284,32.582 121.634784,32.894 122.622784,32.894 Z M125.079784,54.5 L125.079784,35.156 L120.165784,35.156 L120.165784,54.5 L125.079784,54.5 Z M137.063568,55.046 C139.559568,55.046 141.535568,54.487 142.991568,53.369 C144.447568,52.251 145.175568,50.691 145.175568,48.689 C145.175568,47.415 144.857068,46.388 144.220068,45.608 C143.583068,44.828 142.731568,44.23 141.665568,43.814 C140.599568,43.398 139.221568,43.021 137.531568,42.683 L137.531568,42.683 L136.517568,42.488 C135.451568,42.28 134.665068,42.0135 134.158068,41.6885 C133.651068,41.3635 133.397568,40.889 133.397568,40.265 C133.397568,39.667 133.644568,39.199 134.138568,38.861 C134.632568,38.523 135.347568,38.354 136.283568,38.354 C138.311568,38.354 139.533568,39.316 139.949568,41.24 L139.949568,41.24 L144.395568,39.875 C143.901568,38.263 142.952568,36.9825 141.548568,36.0335 C140.144568,35.0845 138.389568,34.61 136.283568,34.61 C133.943568,34.61 132.084568,35.1365 130.706568,36.1895 C129.328568,37.2425 128.639568,38.705 128.639568,40.577 C128.639568,42.345 129.270068,43.6775 130.531068,44.5745 C131.792068,45.4715 133.579568,46.141 135.893568,46.583 L135.893568,46.583 L136.907568,46.778 C138.155568,47.012 139.052568,47.3045 139.598568,47.6555 C140.144568,48.0065 140.417568,48.481 140.417568,49.079 C140.417568,49.729 140.131568,50.262 139.559568,50.678 C138.987568,51.094 138.155568,51.302 137.063568,51.302 C134.437568,51.302 132.903568,50.054 132.461568,47.558 L132.461568,47.558 L127.937568,48.728 C128.275568,50.756 129.244068,52.316 130.843068,53.408 C132.442068,54.5 134.515568,55.046 137.063568,55.046 Z M150.412352,32.894 C151.400352,32.894 152.225852,32.582 152.888852,31.958 C153.551852,31.334 153.883352,30.528 153.883352,29.54 C153.883352,28.552 153.551852,27.746 152.888852,27.122 C152.225852,26.498 151.400352,26.186 150.412352,26.186 C149.424352,26.186 148.598852,26.498 147.935852,27.122 C147.272852,27.746 146.941352,28.552 146.941352,29.54 C146.941352,30.528 147.272852,31.334 147.935852,31.958 C148.598852,32.582 149.424352,32.894 150.412352,32.894 Z M152.869352,54.5 L152.869352,35.156 L147.955352,35.156 L147.955352,54.5 L152.869352,54.5 Z M169.299136,54.5 L169.299136,50.522 L165.555136,50.522 C164.827136,50.522 164.463136,50.132 164.463136,49.352 L164.463136,49.352 L164.463136,39.134 L169.767136,39.134 L169.767136,35.156 L164.463136,35.156 L164.463136,29.15 L159.549136,29.15 L159.549136,35.156 L154.713136,35.156 L154.713136,39.134 L159.549136,39.134 L159.549136,50.132 C159.549136,51.458 159.939136,52.5175 160.719136,53.3105 C161.499136,54.1035 162.539136,54.5 163.839136,54.5 L163.839136,54.5 L169.299136,54.5 Z M195.138704,54.5 L195.138704,50.522 L191.394704,50.522 C190.666704,50.522 190.302704,50.132 190.302704,49.352 L190.302704,49.352 L190.302704,39.134 L195.606704,39.134 L195.606704,35.156 L190.302704,35.156 L190.302704,29.15 L185.388704,29.15 L185.388704,35.156 L180.552704,35.156 L180.552704,39.134 L185.388704,39.134 L185.388704,50.132 C185.388704,51.458 185.778704,52.5175 186.558704,53.3105 C187.338704,54.1035 188.378704,54.5 189.678704,54.5 L189.678704,54.5 L195.138704,54.5 Z M203.300488,54.5 L203.300488,44.516 C203.300488,42.722 203.716488,41.3245 204.548488,40.3235 C205.380488,39.3225 206.550488,38.822 208.058488,38.822 C209.410488,38.822 210.437488,39.186 211.139488,39.914 C211.841488,40.642 212.192488,41.734 212.192488,43.19 L212.192488,43.19 L212.192488,54.5 L217.106488,54.5 L217.106488,42.956 C217.106488,41.37 216.794488,39.966 216.170488,38.744 C215.546488,37.522 214.662488,36.5665 213.518488,35.8775 C212.374488,35.1885 211.061488,34.844 209.579488,34.844 C206.667488,34.844 204.704488,35.858 203.690488,37.886 L203.690488,37.886 L203.300488,37.886 L203.300488,27.2 L198.386488,27.2 L198.386488,54.5 L203.300488,54.5 Z M229.363272,55.046 C233.367272,55.046 236.266272,53.356 238.060272,49.976 L238.060272,49.976 L234.043272,47.87 C233.653272,48.754 233.113772,49.469 232.424772,50.015 C231.735772,50.561 230.767272,50.834 229.519272,50.834 C228.141272,50.834 226.990772,50.405 226.067772,49.547 C225.144772,48.689 224.657272,47.597 224.605272,46.271 L224.605272,46.271 L238.684272,46.271 L238.684272,44.594 C238.684272,42.644 238.294272,40.9085 237.514272,39.3875 C236.734272,37.8665 235.635772,36.69 234.218772,35.858 C232.801772,35.026 231.157272,34.61 229.285272,34.61 C227.387272,34.61 225.703772,35.0325 224.234772,35.8775 C222.765772,36.7225 221.621772,37.9185 220.802772,39.4655 C219.983772,41.0125 219.574272,42.8 219.574272,44.828 C219.574272,46.856 219.990272,48.6435 220.822272,50.1905 C221.654272,51.7375 222.811272,52.9335 224.293272,53.7785 C225.775272,54.6235 227.465272,55.046 229.363272,55.046 Z M233.692272,42.605 L224.644272,42.605 C224.800272,41.487 225.287772,40.577 226.106772,39.875 C226.925772,39.173 227.972272,38.822 229.246272,38.822 C230.494272,38.822 231.514772,39.173 232.307772,39.875 C233.100772,40.577 233.562272,41.487 233.692272,42.605 L233.692272,42.605 Z M260.31184,54.5 L263.39284,39.212 L263.78284,39.212 L266.86384,54.5 L273.88384,54.5 L277.70584,35.156 L272.79184,35.156 L270.45184,50.444 L270.06184,50.444 L266.98084,35.156 L260.19484,35.156 L257.11384,50.444 L256.72384,50.444 L254.38384,35.156 L249.46984,35.156 L253.29184,54.5 L260.31184,54.5 Z M288.207624,55.046 C292.211624,55.046 295.110624,53.356 296.904624,49.976 L296.904624,49.976 L292.887624,47.87 C292.497624,48.754 291.958124,49.469 291.269124,50.015 C290.580124,50.561 289.611624,50.834 288.363624,50.834 C286.985624,50.834 285.835124,50.405 284.912124,49.547 C283.989124,48.689 283.501624,47.597 283.449624,46.271 L283.449624,46.271 L297.528624,46.271 L297.528624,44.594 C297.528624,42.644 297.138624,40.9085 296.358624,39.3875 C295.578624,37.8665 294.480124,36.69 293.063124,35.858 C291.646124,35.026 290.001624,34.61 288.129624,34.61 C286.231624,34.61 284.548124,35.0325 283.079124,35.8775 C281.610124,36.7225 280.466124,37.9185 279.647124,39.4655 C278.828124,41.0125 278.418624,42.8 278.418624,44.828 C278.418624,46.856 278.834624,48.6435 279.666624,50.1905 C280.498624,51.7375 281.655624,52.9335 283.137624,53.7785 C284.619624,54.6235 286.309624,55.046 288.207624,55.046 Z M292.536624,42.605 L283.488624,42.605 C283.644624,41.487 284.132124,40.577 284.951124,39.875 C285.770124,39.173 286.816624,38.822 288.090624,38.822 C289.338624,38.822 290.359124,39.173 291.152124,39.875 C291.945124,40.577 292.406624,41.487 292.536624,42.605 L292.536624,42.605 Z M311.696408,55.046 C313.256408,55.046 314.699408,54.63 316.025408,53.798 C317.351408,52.966 318.417408,51.77 319.223408,50.21 C320.029408,48.65 320.432408,46.856 320.432408,44.828 C320.432408,42.8 320.029408,41.006 319.223408,39.446 C318.417408,37.886 317.351408,36.69 316.025408,35.858 C314.699408,35.026 313.256408,34.61 311.696408,34.61 C308.914408,34.61 306.808408,35.624 305.378408,37.652 L305.378408,37.652 L304.988408,37.652 L304.988408,27.2 L300.074408,27.2 L300.074408,54.5 L304.910408,54.5 L304.910408,51.887 L305.300408,51.887 C306.782408,53.993 308.914408,55.046 311.696408,55.046 Z M310.214408,50.834 C308.654408,50.834 307.380408,50.301 306.392408,49.235 C305.404408,48.169 304.910408,46.7 304.910408,44.828 C304.910408,42.956 305.404408,41.487 306.392408,40.421 C307.380408,39.355 308.654408,38.822 310.214408,38.822 C311.774408,38.822 313.048408,39.355 314.036408,40.421 C315.024408,41.487 315.518408,42.956 315.518408,44.828 C315.518408,46.7 315.024408,48.169 314.036408,49.235 C313.048408,50.301 311.774408,50.834 310.214408,50.834 Z M331.246192,55.046 C333.742192,55.046 335.718192,54.487 337.174192,53.369 C338.630192,52.251 339.358192,50.691 339.358192,48.689 C339.358192,47.415 339.039692,46.388 338.402692,45.608 C337.765692,44.828 336.914192,44.23 335.848192,43.814 C334.782192,43.398 333.404192,43.021 331.714192,42.683 L331.714192,42.683 L330.700192,42.488 C329.634192,42.28 328.847692,42.0135 328.340692,41.6885 C327.833692,41.3635 327.580192,40.889 327.580192,40.265 C327.580192,39.667 327.827192,39.199 328.321192,38.861 C328.815192,38.523 329.530192,38.354 330.466192,38.354 C332.494192,38.354 333.716192,39.316 334.132192,41.24 L334.132192,41.24 L338.578192,39.875 C338.084192,38.263 337.135192,36.9825 335.731192,36.0335 C334.327192,35.0845 332.572192,34.61 330.466192,34.61 C328.126192,34.61 326.267192,35.1365 324.889192,36.1895 C323.511192,37.2425 322.822192,38.705 322.822192,40.577 C322.822192,42.345 323.452692,43.6775 324.713692,44.5745 C325.974692,45.4715 327.762192,46.141 330.076192,46.583 L330.076192,46.583 L331.090192,46.778 C332.338192,47.012 333.235192,47.3045 333.781192,47.6555 C334.327192,48.0065 334.600192,48.481 334.600192,49.079 C334.600192,49.729 334.314192,50.262 333.742192,50.678 C333.170192,51.094 332.338192,51.302 331.246192,51.302 C328.620192,51.302 327.086192,50.054 326.644192,47.558 L326.644192,47.558 L322.120192,48.728 C322.458192,50.756 323.426692,52.316 325.025692,53.408 C326.624692,54.5 328.698192,55.046 331.246192,55.046 Z M344.594976,32.894 C345.582976,32.894 346.408476,32.582 347.071476,31.958 C347.734476,31.334 348.065976,30.528 348.065976,29.54 C348.065976,28.552 347.734476,27.746 347.071476,27.122 C346.408476,26.498 345.582976,26.186 344.594976,26.186 C343.606976,26.186 342.781476,26.498 342.118476,27.122 C341.455476,27.746 341.123976,28.552 341.123976,29.54 C341.123976,30.528 341.455476,31.334 342.118476,31.958 C342.781476,32.582 343.606976,32.894 344.594976,32.894 Z M347.051976,54.5 L347.051976,35.156 L342.137976,35.156 L342.137976,54.5 L347.051976,54.5 Z M363.48176,54.5 L363.48176,50.522 L359.73776,50.522 C359.00976,50.522 358.64576,50.132 358.64576,49.352 L358.64576,49.352 L358.64576,39.134 L363.94976,39.134 L363.94976,35.156 L358.64576,35.156 L358.64576,29.15 L353.73176,29.15 L353.73176,35.156 L348.89576,35.156 L348.89576,39.134 L353.73176,39.134 L353.73176,50.132 C353.73176,51.458 354.12176,52.5175 354.90176,53.3105 C355.68176,54.1035 356.72176,54.5 358.02176,54.5 L358.02176,54.5 L363.48176,54.5 Z M374.958544,55.046 C378.962544,55.046 381.861544,53.356 383.655544,49.976 L383.655544,49.976 L379.638544,47.87 C379.248544,48.754 378.709044,49.469 378.020044,50.015 C377.331044,50.561 376.362544,50.834 375.114544,50.834 C373.736544,50.834 372.586044,50.405 371.663044,49.547 C370.740044,48.689 370.252544,47.597 370.200544,46.271 L370.200544,46.271 L384.279544,46.271 L384.279544,44.594 C384.279544,42.644 383.889544,40.9085 383.109544,39.3875 C382.329544,37.8665 381.231044,36.69 379.814044,35.858 C378.397044,35.026 376.752544,34.61 374.880544,34.61 C372.982544,34.61 371.299044,35.0325 369.830044,35.8775 C368.361044,36.7225 367.217044,37.9185 366.398044,39.4655 C365.579044,41.0125 365.169544,42.8 365.169544,44.828 C365.169544,46.856 365.585544,48.6435 366.417544,50.1905 C367.249544,51.7375 368.406544,52.9335 369.888544,53.7785 C371.370544,54.6235 373.060544,55.046 374.958544,55.046 Z M379.287544,42.605 L370.239544,42.605 C370.395544,41.487 370.883044,40.577 371.702044,39.875 C372.521044,39.173 373.567544,38.822 374.841544,38.822 C376.089544,38.822 377.110044,39.173 377.903044,39.875 C378.696044,40.577 379.157544,41.487 379.287544,42.605 L379.287544,42.605 Z" id="Visitthewebsite" fill="#FF8A00" fill-rule="nonzero"></path>
        <polygon id="→" fill="#FF8A00" fill-rule="nonzero" points="412.319 54.975 421.25 46.044 421.25 42.066 412.319 33.135 409.043 36.411 413.255 40.623 414.542 41.481 414.425 41.832 412.865 41.676 393.95 41.676 393.95 46.434 412.865 46.434 414.425 46.278 414.542 46.629 413.255 47.487 409.043 51.699"></polygon>
    </g>
</svg>

<svg xmlns="http://www.w3.org/2000/svg" xmlns:xlink="http://www.w3.org/1999/xlink" width="430" height="80" viewBox="0 0 430 80"><title>Pirate-Heijn-Visit-Website</title><defs><path id="a" d="M12.077 51.953v-17.09h8.508c6.575 0 11.37-1.52 14.384-4.563l.091-.093c3.009-3.104 4.514-7.328 4.514-12.672 0-3.493-.64-6.554-1.92-9.182-1.28-2.629-3.312-4.678-6.096-6.148C28.774.735 25.116 0 20.585 0H1.213C.566 0 .04.525.04 1.172v50.781c0 .647.525 1.172 1.172 1.172h9.692c.648 0 1.172-.525 1.172-1.172z"/></defs><g fill="none" fill-rule="evenodd"><path fill="#000" stroke="#FF8A00" stroke-width="3" d="M54.247 1.5c8.332.032 11.448.885 14.574 2.557a17.12 17.12 0 0 1 7.122 7.122c1.704 3.186 2.557 6.361 2.557 15.06h0V53.76c0 8.7-.853 11.875-2.557 15.061a17.12 17.12 0 0 1-7.122 7.122c-3.186 1.704-6.361 2.557-15.06 2.557h0H26.24c-8.7 0-11.875-.853-15.061-2.557a17.12 17.12 0 0 1-7.122-7.122C2.386 65.697 1.533 62.582 1.5 54.252h0V25.753c.031-8.332.884-11.448 2.556-14.574a17.12 17.12 0 0 1 7.122-7.122c3.124-1.671 6.239-2.524 14.569-2.556h0z"/><g transform="translate(22.927 13.438)"><mask id="b" fill="#fff"><use xlink:href="#a"/></mask><use fill="#FF8A00" fill-rule="nonzero" xlink:href="#a"/><path fill="#000" d="M36.078 4.811l2.87 4.471c-3.901 2.504-7.757 4.394-11.566 5.663v3.53c0 2.595-1.638 7.056-7.575 7.056s-7.47-4.461-7.47-7.055v-1.321c-3.88.077-8.07-.093-12.572-.51l-.234-.022.499-5.29c7.429.701 13.909.701 19.433.01 5.26-.659 10.74-2.788 16.443-6.421l.172-.11z" mask="url(#b)"/></g><path fill="#FF8A00" fill-rule="nonzero" d="M110.795 54.5l7.605-27.3h-5.265l-6.201 23.088h-.39L100.343 27.2h-5.265l7.605 27.3h8.112zm11.828-21.606c.988 0 1.813-.312 2.476-.936.663-.624.995-1.43.995-2.418 0-.988-.332-1.794-.995-2.418-.663-.624-1.488-.936-2.476-.936s-1.814.312-2.477.936c-.663.624-.994 1.43-.994 2.418 0 .988.331 1.794.994 2.418.663.624 1.489.936 2.477.936zM125.08 54.5V35.156h-4.914V54.5h4.914zm11.984.546c2.496 0 4.472-.559 5.928-1.677 1.456-1.118 2.184-2.678 2.184-4.68 0-1.274-.319-2.301-.956-3.081-.637-.78-1.488-1.378-2.554-1.794-1.066-.416-2.444-.793-4.134-1.131l-1.014-.195c-1.066-.208-1.853-.474-2.36-.8-.507-.325-.76-.799-.76-1.423 0-.598.247-1.066.74-1.404.495-.338 1.21-.507 2.146-.507 2.028 0 3.25.962 3.666 2.886l4.446-1.365c-.494-1.612-1.443-2.892-2.847-3.842-1.404-.949-3.16-1.423-5.265-1.423-2.34 0-4.2.526-5.577 1.58-1.378 1.053-2.067 2.515-2.067 4.387 0 1.768.63 3.1 1.891 3.998 1.261.896 3.049 1.566 5.363 2.008l1.014.195c1.248.234 2.145.526 2.69.878.547.35.82.825.82 1.423 0 .65-.286 1.183-.858 1.599-.572.416-1.404.624-2.496.624-2.626 0-4.16-1.248-4.602-3.744l-4.524 1.17c.338 2.028 1.306 3.588 2.905 4.68 1.6 1.092 3.673 1.638 6.22 1.638zm13.348-22.152c.988 0 1.814-.312 2.477-.936.663-.624.994-1.43.994-2.418 0-.988-.331-1.794-.994-2.418-.663-.624-1.489-.936-2.477-.936-.988 0-1.813.312-2.476.936-.663.624-.995 1.43-.995 2.418 0 .988.332 1.794.995 2.418.663.624 1.488.936 2.476.936zM152.87 54.5V35.156h-4.914V54.5h4.914zm16.43 0v-3.978h-3.744c-.728 0-1.092-.39-1.092-1.17V39.134h5.304v-3.978h-5.304V29.15h-4.914v6.006h-4.836v3.978h4.836v10.998c0 1.326.39 2.386 1.17 3.178.78.793 1.82 1.19 3.12 1.19h5.46zm25.84 0v-3.978h-3.744c-.728 0-1.092-.39-1.092-1.17V39.134h5.304v-3.978h-5.304V29.15h-4.914v6.006h-4.836v3.978h4.836v10.998c0 1.326.39 2.386 1.17 3.178.78.793 1.82 1.19 3.12 1.19h5.46zm8.161 0v-9.984c0-1.794.416-3.191 1.248-4.192.832-1.002 2.002-1.502 3.51-1.502 1.352 0 2.38.364 3.081 1.092.702.728 1.053 1.82 1.053 3.276V54.5h4.914V42.956c0-1.586-.312-2.99-.936-4.212-.624-1.222-1.508-2.178-2.652-2.867-1.144-.689-2.457-1.033-3.939-1.033-2.912 0-4.875 1.014-5.889 3.042h-.39V27.2h-4.914v27.3h4.914zm26.063.546c4.004 0 6.903-1.69 8.697-5.07l-4.017-2.106c-.39.884-.93 1.599-1.618 2.145-.69.546-1.658.819-2.906.819-1.378 0-2.528-.429-3.451-1.287-.923-.858-1.41-1.95-1.463-3.276h14.08v-1.677c0-1.95-.39-3.686-1.17-5.206-.78-1.521-1.88-2.698-3.296-3.53-1.417-.832-3.062-1.248-4.934-1.248-1.898 0-3.581.422-5.05 1.267-1.47.845-2.613 2.041-3.432 3.588-.82 1.547-1.229 3.335-1.229 5.363 0 2.028.416 3.816 1.248 5.362.832 1.547 1.99 2.744 3.471 3.589 1.482.844 3.172 1.267 5.07 1.267zm4.33-12.441h-9.049c.156-1.118.644-2.028 1.463-2.73.819-.702 1.865-1.053 3.14-1.053 1.247 0 2.268.351 3.06 1.053.794.702 1.255 1.612 1.385 2.73zM260.311 54.5l3.08-15.288h.39l3.082 15.288h7.02l3.822-19.344h-4.914l-2.34 15.288h-.39l-3.081-15.288h-6.786l-3.081 15.288h-.39l-2.34-15.288h-4.914l3.822 19.344h7.02zm27.896.546c4.004 0 6.903-1.69 8.697-5.07l-4.017-2.106c-.39.884-.93 1.599-1.619 2.145s-1.657.819-2.905.819c-1.378 0-2.529-.429-3.452-1.287-.923-.858-1.41-1.95-1.462-3.276h14.079v-1.677c0-1.95-.39-3.686-1.17-5.206-.78-1.521-1.879-2.698-3.296-3.53-1.417-.832-3.061-1.248-4.933-1.248-1.898 0-3.582.422-5.05 1.267-1.47.845-2.614 2.041-3.433 3.588-.819 1.547-1.228 3.335-1.228 5.363 0 2.028.416 3.816 1.248 5.362.832 1.547 1.989 2.744 3.47 3.589 1.483.844 3.173 1.267 5.07 1.267zm4.329-12.441h-9.048c.156-1.118.643-2.028 1.462-2.73.82-.702 1.866-1.053 3.14-1.053 1.248 0 2.268.351 3.061 1.053.793.702 1.255 1.612 1.385 2.73zm19.16 12.441a7.99 7.99 0 004.328-1.248c1.326-.832 2.392-2.028 3.198-3.588s1.21-3.354 1.21-5.382c0-2.028-.404-3.822-1.21-5.382-.806-1.56-1.872-2.756-3.198-3.588a7.99 7.99 0 00-4.329-1.248c-2.782 0-4.888 1.014-6.318 3.042h-.39V27.2h-4.914v27.3h4.836v-2.613h.39c1.482 2.106 3.614 3.159 6.396 3.159zm-1.483-4.212c-1.56 0-2.834-.533-3.822-1.599-.988-1.066-1.482-2.535-1.482-4.407 0-1.872.494-3.341 1.482-4.407.988-1.066 2.262-1.599 3.822-1.599s2.834.533 3.822 1.599c.988 1.066 1.482 2.535 1.482 4.407 0 1.872-.494 3.341-1.482 4.407-.988 1.066-2.262 1.599-3.822 1.599zm21.032 4.212c2.496 0 4.472-.559 5.928-1.677 1.456-1.118 2.184-2.678 2.184-4.68 0-1.274-.318-2.301-.955-3.081-.637-.78-1.489-1.378-2.555-1.794-1.066-.416-2.444-.793-4.134-1.131l-1.014-.195c-1.066-.208-1.852-.474-2.36-.8-.506-.325-.76-.799-.76-1.423 0-.598.247-1.066.741-1.404.494-.338 1.21-.507 2.145-.507 2.028 0 3.25.962 3.666 2.886l4.446-1.365c-.494-1.612-1.443-2.892-2.847-3.842-1.404-.949-3.159-1.423-5.265-1.423-2.34 0-4.199.526-5.577 1.58-1.378 1.053-2.067 2.515-2.067 4.387 0 1.768.63 3.1 1.892 3.998 1.26.896 3.048 1.566 5.362 2.008l1.014.195c1.248.234 2.145.526 2.691.878.546.35.82.825.82 1.423 0 .65-.287 1.183-.859 1.599-.572.416-1.404.624-2.496.624-2.626 0-4.16-1.248-4.602-3.744l-4.524 1.17c.338 2.028 1.307 3.588 2.906 4.68 1.599 1.092 3.672 1.638 6.22 1.638zm13.349-22.152c.988 0 1.813-.312 2.476-.936.663-.624.995-1.43.995-2.418 0-.988-.332-1.794-.995-2.418-.663-.624-1.488-.936-2.476-.936s-1.814.312-2.477.936c-.663.624-.994 1.43-.994 2.418 0 .988.331 1.794.994 2.418.663.624 1.489.936 2.477.936zm2.457 21.606V35.156h-4.914V54.5h4.914zm16.43 0v-3.978h-3.744c-.728 0-1.092-.39-1.092-1.17V39.134h5.304v-3.978h-5.304V29.15h-4.914v6.006h-4.836v3.978h4.836v10.998c0 1.326.39 2.386 1.17 3.178.78.793 1.82 1.19 3.12 1.19h5.46zm11.477.546c4.004 0 6.903-1.69 8.697-5.07l-4.017-2.106c-.39.884-.93 1.599-1.619 2.145s-1.657.819-2.905.819c-1.378 0-2.529-.429-3.452-1.287-.923-.858-1.41-1.95-1.462-3.276h14.079v-1.677c0-1.95-.39-3.686-1.17-5.206-.78-1.521-1.879-2.698-3.296-3.53-1.417-.832-3.061-1.248-4.933-1.248-1.898 0-3.582.422-5.051 1.267-1.469.845-2.613 2.041-3.432 3.588-.819 1.547-1.228 3.335-1.228 5.363 0 2.028.416 3.816 1.248 5.362.832 1.547 1.989 2.744 3.47 3.589 1.483.844 3.173 1.267 5.07 1.267zm4.329-12.441h-9.048c.156-1.118.643-2.028 1.462-2.73s1.866-1.053 3.14-1.053c1.248 0 2.268.351 3.061 1.053.793.702 1.255 1.612 1.385 2.73zM412.319 54.975l8.931-8.931v-3.978l-8.931-8.931-3.276 3.276 4.212 4.212 1.287.858-.117.351-1.56-.156H393.95v4.758h18.915l1.56-.156.117.351-1.287.858-4.212 4.212z"/></g></svg>
